; generated by Slic3r 1.37.2.1-prusa3d-win64 on 2020-01-09 at 11:49:17

; 

; external perimeters extrusion width = 0.45mm
; perimeters extrusion width = 0.45mm
; infill extrusion width = 0.45mm
; solid infill extrusion width = 0.45mm
; top infill extrusion width = 0.40mm
; support material extrusion width = 0.35mm
; first layer extrusion width = 0.42mm

M107 ; disable fan
M115 U3.4.0 ; tell printer latest fw version
M83  ; extruder relative mode
M104 S255 ; set extruder temp
M140 S100 ; set bed temp
M190 S100 ; wait for bed temp
M109 S255 ; wait for extruder temp
G28 W ; home all without mesh bed level
G80 ; mesh bed leveling
G1 Y-3.0 F1000.0 ; go outside print area
G92 E0.0
G1 X60.0 E9.0  F1000.0 ; intro line
G1 X100.0 E12.5  F1000.0 ; intro line
G92 E0.0
M221 S95
M900 K30 
Filament gcode
G21 ; set units to millimeters
G90 ; use absolute coordinates
M83 ; use relative distances for extrusion
;BEFORE_LAYER_CHANGE
G92 E0.0
;0.2


G1 E-0.80000 F2100.00000 ; retract
G1 Z0.600 F10800.000 ; lift Z
;AFTER_LAYER_CHANGE
;0.2
G1 X106.145 Y70.924 F10800.000 ; move to first skirt point
G1 Z0.200 F10800.000 ; restore layer Z
G1 E0.80000 F2100.00000 ; unretract
M204 S1000 ; adjust acceleration
G1 F1200
G1 X107.065 Y70.720 E0.02954 ; skirt
G1 X143.733 Y70.720 E1.14972 ; skirt
G1 X144.611 Y70.889 E0.02802 ; skirt
G1 X145.361 Y71.368 E0.02790 ; skirt
G1 X145.884 Y72.092 E0.02802 ; skirt
G1 X146.103 Y72.959 E0.02802 ; skirt
G1 X146.877 Y98.493 E0.80097 ; skirt
G1 X146.875 Y111.603 E0.41106 ; skirt
G1 X146.692 Y112.420 E0.02626 ; skirt
G1 X146.234 Y113.126 E0.02637 ; skirt
G1 X145.449 Y113.679 E0.03013 ; skirt
G1 X144.505 Y113.877 E0.03024 ; skirt
G1 X105.462 Y113.877 E1.22417 ; skirt
G1 X104.608 Y113.703 E0.02731 ; skirt
G1 X103.874 Y113.234 E0.02731 ; skirt
G1 X103.342 Y112.498 E0.02849 ; skirt
G1 X103.126 Y111.619 E0.02837 ; skirt
G1 X103.124 Y98.416 E0.41397 ; skirt
G1 X104.741 Y72.901 E0.80162 ; skirt
G1 X104.937 Y72.133 E0.02484 ; skirt
G1 X105.377 Y71.470 E0.02496 ; skirt
G1 X106.096 Y70.959 E0.02766 ; skirt
G1 F8640
G1 X107.065 Y70.720 E-0.23038 ; wipe and retract
G1 F8640
G1 X109.358 Y70.720 E-0.52962 ; wipe and retract
G1 E-0.04000 F2100.00000 ; retract
G1 Z0.800 F10800.000 ; lift Z
G1 X108.397 Y99.677 F10800.000 ; move to first perimeter point
G1 Z0.200 F10800.000 ; restore layer Z
G1 E0.80000 F2100.00000 ; unretract
G1 F1200
G1 X108.734 Y99.663 E0.01058 ; perimeter
G1 X109.069 Y99.705 E0.01058 ; perimeter
G1 X109.392 Y99.804 E0.01058 ; perimeter
G1 X109.693 Y99.956 E0.01058 ; perimeter
G1 X109.964 Y100.157 E0.01058 ; perimeter
G1 X110.198 Y100.400 E0.01058 ; perimeter
G1 X110.387 Y100.680 E0.01058 ; perimeter
G1 X110.526 Y100.987 E0.01058 ; perimeter
G1 X110.611 Y101.314 E0.01058 ; perimeter
G1 X110.639 Y101.650 E0.01058 ; perimeter
G1 X110.611 Y101.986 E0.01058 ; perimeter
G1 X110.526 Y102.313 E0.01058 ; perimeter
G1 X110.387 Y102.620 E0.01058 ; perimeter
G1 X110.198 Y102.900 E0.01058 ; perimeter
G1 X109.964 Y103.143 E0.01058 ; perimeter
G1 X109.693 Y103.344 E0.01058 ; perimeter
G1 X109.392 Y103.496 E0.01058 ; perimeter
G1 X109.069 Y103.595 E0.01058 ; perimeter
G1 X108.734 Y103.637 E0.01058 ; perimeter
G1 X108.397 Y103.623 E0.01058 ; perimeter
G1 X108.068 Y103.552 E0.01058 ; perimeter
G1 X107.754 Y103.426 E0.01058 ; perimeter
G1 X107.467 Y103.249 E0.01058 ; perimeter
G1 X107.214 Y103.026 E0.01058 ; perimeter
G1 X107.002 Y102.764 E0.01058 ; perimeter
G1 X106.837 Y102.469 E0.01058 ; perimeter
G1 X106.725 Y102.151 E0.01058 ; perimeter
G1 X106.668 Y101.819 E0.01058 ; perimeter
G1 X106.668 Y101.481 E0.01058 ; perimeter
G1 X106.725 Y101.149 E0.01058 ; perimeter
G1 X106.837 Y100.831 E0.01058 ; perimeter
G1 X107.002 Y100.536 E0.01058 ; perimeter
G1 X107.214 Y100.274 E0.01058 ; perimeter
G1 X107.467 Y100.051 E0.01058 ; perimeter
G1 X107.754 Y99.874 E0.01058 ; perimeter
G1 X108.068 Y99.748 E0.01058 ; perimeter
G1 X108.339 Y99.690 E0.00870 ; perimeter
G1 X108.418 Y100.058 F10800.000 ; move to first perimeter point
G1 F1200
G1 X108.718 Y100.041 E0.00943 ; perimeter
G1 X108.989 Y100.075 E0.00857 ; perimeter
G1 X109.251 Y100.155 E0.00857 ; perimeter
G1 X109.495 Y100.278 E0.00857 ; perimeter
G1 X109.714 Y100.441 E0.00857 ; perimeter
G1 X109.903 Y100.638 E0.00857 ; perimeter
G1 X110.056 Y100.864 E0.00857 ; perimeter
G1 X110.169 Y101.113 E0.00857 ; perimeter
G1 X110.238 Y101.378 E0.00857 ; perimeter
G1 X110.261 Y101.650 E0.00857 ; perimeter
G1 X110.238 Y101.922 E0.00857 ; perimeter
G1 X110.169 Y102.187 E0.00857 ; perimeter
G1 X110.056 Y102.436 E0.00857 ; perimeter
G1 X109.903 Y102.662 E0.00857 ; perimeter
G1 X109.714 Y102.859 E0.00857 ; perimeter
G1 X109.495 Y103.022 E0.00857 ; perimeter
G1 X109.251 Y103.145 E0.00857 ; perimeter
G1 X108.989 Y103.225 E0.00857 ; perimeter
G1 X108.718 Y103.259 E0.00857 ; perimeter
G1 X108.445 Y103.248 E0.00857 ; perimeter
G1 X108.178 Y103.190 E0.00857 ; perimeter
G1 X107.925 Y103.088 E0.00857 ; perimeter
G1 X107.692 Y102.945 E0.00857 ; perimeter
G1 X107.487 Y102.765 E0.00857 ; perimeter
G1 X107.315 Y102.552 E0.00857 ; perimeter
G1 X107.182 Y102.313 E0.00857 ; perimeter
G1 X107.091 Y102.056 E0.00857 ; perimeter
G1 X107.045 Y101.787 E0.00857 ; perimeter
G1 X107.045 Y101.513 E0.00857 ; perimeter
G1 X107.091 Y101.244 E0.00857 ; perimeter
G1 X107.182 Y100.987 E0.00857 ; perimeter
G1 X107.315 Y100.748 E0.00857 ; perimeter
G1 X107.487 Y100.535 E0.00857 ; perimeter
G1 X107.692 Y100.355 E0.00857 ; perimeter
G1 X107.925 Y100.212 E0.00857 ; perimeter
G1 X108.178 Y100.110 E0.00857 ; perimeter
G1 X108.359 Y100.071 E0.00581 ; perimeter
G1 X108.531 Y99.779 F10800.000 ; move inwards before travel
G1 F8640
G1 X108.718 Y100.041 E-0.08316 ; wipe and retract
G1 F8640
G1 X108.989 Y100.075 E-0.06308 ; wipe and retract
G1 F8640
G1 X109.251 Y100.155 E-0.06308 ; wipe and retract
G1 F8640
G1 X109.495 Y100.278 E-0.06308 ; wipe and retract
G1 F8640
G1 X109.714 Y100.441 E-0.06308 ; wipe and retract
G1 F8640
G1 X109.903 Y100.638 E-0.06308 ; wipe and retract
G1 F8640
G1 X110.056 Y100.864 E-0.06308 ; wipe and retract
G1 F8640
G1 X110.169 Y101.113 E-0.06308 ; wipe and retract
G1 F8640
G1 X110.238 Y101.378 E-0.06308 ; wipe and retract
G1 F8640
G1 X110.261 Y101.650 E-0.06308 ; wipe and retract
G1 F8640
G1 X110.238 Y101.922 E-0.06308 ; wipe and retract
G1 F8640
G1 X110.187 Y102.115 E-0.04601 ; wipe and retract
G1 E-0.04000 F2100.00000 ; retract
G1 Z0.800 F10800.000 ; lift Z
G1 X139.368 Y101.481 F10800.000 ; move to first perimeter point
G1 Z0.200 F10800.000 ; restore layer Z
G1 E0.80000 F2100.00000 ; unretract
G1 F1200
G1 X139.425 Y101.149 E0.01058 ; perimeter
G1 X139.537 Y100.831 E0.01058 ; perimeter
G1 X139.702 Y100.536 E0.01058 ; perimeter
G1 X139.914 Y100.274 E0.01058 ; perimeter
G1 X140.167 Y100.051 E0.01058 ; perimeter
G1 X140.454 Y99.874 E0.01058 ; perimeter
G1 X140.768 Y99.748 E0.01058 ; perimeter
G1 X141.097 Y99.677 E0.01058 ; perimeter
G1 X141.434 Y99.663 E0.01058 ; perimeter
G1 X141.769 Y99.705 E0.01058 ; perimeter
G1 X142.092 Y99.804 E0.01058 ; perimeter
G1 X142.393 Y99.956 E0.01058 ; perimeter
G1 X142.664 Y100.157 E0.01058 ; perimeter
G1 X142.898 Y100.400 E0.01058 ; perimeter
G1 X143.087 Y100.680 E0.01058 ; perimeter
G1 X143.226 Y100.987 E0.01058 ; perimeter
G1 X143.311 Y101.314 E0.01058 ; perimeter
G1 X143.339 Y101.650 E0.01058 ; perimeter
G1 X143.311 Y101.986 E0.01058 ; perimeter
G1 X143.226 Y102.313 E0.01058 ; perimeter
G1 X143.087 Y102.620 E0.01058 ; perimeter
G1 X142.898 Y102.900 E0.01058 ; perimeter
G1 X142.664 Y103.143 E0.01058 ; perimeter
G1 X142.393 Y103.344 E0.01058 ; perimeter
G1 X142.092 Y103.496 E0.01058 ; perimeter
G1 X141.769 Y103.595 E0.01058 ; perimeter
G1 X141.434 Y103.637 E0.01058 ; perimeter
G1 X141.097 Y103.623 E0.01058 ; perimeter
G1 X140.768 Y103.552 E0.01058 ; perimeter
G1 X140.454 Y103.426 E0.01058 ; perimeter
G1 X140.167 Y103.249 E0.01058 ; perimeter
G1 X139.914 Y103.026 E0.01058 ; perimeter
G1 X139.702 Y102.764 E0.01058 ; perimeter
G1 X139.537 Y102.469 E0.01058 ; perimeter
G1 X139.425 Y102.151 E0.01058 ; perimeter
G1 X139.368 Y101.819 E0.01058 ; perimeter
G1 X139.368 Y101.541 E0.00870 ; perimeter
G1 X139.745 Y101.541 F10800.000 ; move to first perimeter point
G1 F1200
G1 X139.791 Y101.244 E0.00943 ; perimeter
G1 X139.882 Y100.987 E0.00857 ; perimeter
G1 X140.015 Y100.748 E0.00857 ; perimeter
G1 X140.187 Y100.535 E0.00857 ; perimeter
G1 X140.392 Y100.355 E0.00857 ; perimeter
G1 X140.625 Y100.212 E0.00857 ; perimeter
G1 X140.878 Y100.110 E0.00857 ; perimeter
G1 X141.145 Y100.052 E0.00857 ; perimeter
G1 X141.418 Y100.041 E0.00857 ; perimeter
G1 X141.689 Y100.075 E0.00857 ; perimeter
G1 X141.951 Y100.155 E0.00857 ; perimeter
G1 X142.195 Y100.278 E0.00857 ; perimeter
G1 X142.414 Y100.441 E0.00857 ; perimeter
G1 X142.603 Y100.638 E0.00857 ; perimeter
G1 X142.756 Y100.864 E0.00857 ; perimeter
G1 X142.869 Y101.113 E0.00857 ; perimeter
G1 X142.938 Y101.378 E0.00857 ; perimeter
G1 X142.961 Y101.650 E0.00857 ; perimeter
G1 X142.938 Y101.922 E0.00857 ; perimeter
G1 X142.869 Y102.187 E0.00857 ; perimeter
G1 X142.756 Y102.436 E0.00857 ; perimeter
G1 X142.603 Y102.662 E0.00857 ; perimeter
G1 X142.414 Y102.859 E0.00857 ; perimeter
G1 X142.195 Y103.022 E0.00857 ; perimeter
G1 X141.951 Y103.145 E0.00857 ; perimeter
G1 X141.689 Y103.225 E0.00857 ; perimeter
G1 X141.418 Y103.259 E0.00857 ; perimeter
G1 X141.145 Y103.248 E0.00857 ; perimeter
G1 X140.878 Y103.190 E0.00857 ; perimeter
G1 X140.625 Y103.088 E0.00857 ; perimeter
G1 X140.392 Y102.945 E0.00857 ; perimeter
G1 X140.187 Y102.765 E0.00857 ; perimeter
G1 X140.015 Y102.552 E0.00857 ; perimeter
G1 X139.882 Y102.313 E0.00857 ; perimeter
G1 X139.791 Y102.056 E0.00857 ; perimeter
G1 X139.745 Y101.787 E0.00857 ; perimeter
G1 X139.745 Y101.601 E0.00581 ; perimeter
G1 X139.496 Y101.372 F10800.000 ; move inwards before travel
G1 F8640
G1 X139.791 Y101.244 E-0.08316 ; wipe and retract
G1 F8640
G1 X139.882 Y100.987 E-0.06308 ; wipe and retract
G1 F8640
G1 X140.015 Y100.748 E-0.06309 ; wipe and retract
G1 F8640
G1 X140.187 Y100.535 E-0.06308 ; wipe and retract
G1 F8640
G1 X140.392 Y100.355 E-0.06308 ; wipe and retract
G1 F8640
G1 X140.625 Y100.212 E-0.06308 ; wipe and retract
G1 F8640
G1 X140.878 Y100.110 E-0.06308 ; wipe and retract
G1 F8640
G1 X141.145 Y100.052 E-0.06308 ; wipe and retract
G1 F8640
G1 X141.418 Y100.041 E-0.06308 ; wipe and retract
G1 F8640
G1 X141.689 Y100.075 E-0.06308 ; wipe and retract
G1 F8640
G1 X141.951 Y100.155 E-0.06308 ; wipe and retract
G1 F8640
G1 X142.128 Y100.245 E-0.04601 ; wipe and retract
G1 E-0.04000 F2100.00000 ; retract
G1 Z0.800 F10800.000 ; lift Z
G1 X143.913 Y99.087 F10800.000 ; move to first perimeter point
G1 Z0.200 F10800.000 ; restore layer Z
G1 E0.80000 F2100.00000 ; unretract
G1 F1200
G1 X143.913 Y110.913 E0.37079 ; perimeter
G1 X106.087 Y110.913 E1.18600 ; perimeter
G1 X106.087 Y99.087 E0.37079 ; perimeter
G1 X143.853 Y99.087 E1.18412 ; perimeter
G1 X144.290 Y98.710 F10800.000 ; move to first perimeter point
G1 F1200
G1 X144.290 Y111.290 E0.39444 ; perimeter
G1 X105.710 Y111.290 E1.20965 ; perimeter
G1 X105.710 Y98.710 E0.39444 ; perimeter
G1 X144.230 Y98.710 E1.20777 ; perimeter
G1 X144.127 Y99.075 F10800.000 ; move inwards before travel
G1 F8640
G1 X144.246 Y102.001 E-0.76000 ; wipe and retract
G1 E-0.04000 F2100.00000 ; retract
G1 Z0.800 F10800.000 ; lift Z
G1 X143.800 Y100.003 F10800.000 ; move to first infill point
G1 Z0.200 F10800.000 ; restore layer Z
G1 E0.80000 F2100.00000 ; unretract
G1 F1200
G1 X143.167 Y99.370 E0.02946 ; infill
G1 X142.607 Y99.370 E0.01844 ; infill
G1 X143.800 Y100.562 E0.05553 ; infill
G1 X143.569 Y100.944 F10800.000 ; move to first infill point
G1 F1200
G1 X143.609 Y101.253 E0.00601 ; infill
G1 F1200
G1 X143.626 Y101.658 E0.00518 ; infill
G1 F1200
G1 X143.611 Y102.028 E0.00714 ; infill
G1 X143.569 Y102.356 E0.00639 ; infill
G1 X143.800 Y103.257 F10800.000 ; move to first infill point
G1 F1200
G1 X143.321 Y102.778 E0.02128 ; infill
G1 X143.103 Y103.094 E0.01208 ; infill
G1 X143.630 Y103.622 E0.02345 ; infill
G1 X143.630 Y104.156 E0.01681 ; infill
G1 X142.839 Y103.366 E0.03516 ; infill
G1 X142.530 Y103.591 E0.01203 ; infill
G1 X143.630 Y104.691 E0.04890 ; infill
G1 X143.630 Y105.226 E0.01681 ; infill
G1 X142.171 Y103.767 E0.06485 ; infill
G1 X141.751 Y103.882 E0.01368 ; infill
G1 X143.630 Y105.761 E0.08352 ; infill
G1 X143.630 Y106.295 E0.01681 ; infill
G1 X141.247 Y103.913 E0.10593 ; infill
G1 X141.061 Y103.905 E0.00586 ; infill
G1 X140.684 Y103.823 E0.01212 ; infill
G1 X140.583 Y103.783 E0.00344 ; infill
G1 X143.630 Y106.830 E0.13548 ; infill
G1 X143.630 Y107.365 E0.01681 ; infill
G1 X135.635 Y99.370 E0.35543 ; infill
G1 X136.170 Y99.370 E0.01681 ; infill
G1 X139.220 Y102.420 E0.13559 ; infill
G1 X139.150 Y102.223 E0.00657 ; infill
G1 X139.085 Y101.843 E0.01212 ; infill
G1 X139.085 Y101.750 E0.00291 ; infill
G1 X136.705 Y99.370 E0.10583 ; infill
G1 X137.239 Y99.370 E0.01681 ; infill
G1 X139.121 Y101.251 E0.08363 ; infill
G1 X139.150 Y101.077 E0.00554 ; infill
G1 X139.237 Y100.833 E0.00816 ; infill
G1 X137.774 Y99.370 E0.06503 ; infill
G1 X138.309 Y99.370 E0.01681 ; infill
G1 X139.413 Y100.474 E0.04908 ; infill
G1 X139.467 Y100.377 E0.00348 ; infill
G1 X139.638 Y100.165 E0.00858 ; infill
G1 X138.844 Y99.370 E0.03534 ; infill
G1 X139.378 Y99.370 E0.01681 ; infill
G1 X139.909 Y99.901 E0.02361 ; infill
G1 X139.998 Y99.822 E0.00373 ; infill
G1 X140.226 Y99.683 E0.00839 ; infill
G1 X139.743 Y99.200 E0.02145 ; infill
G1 X140.647 Y99.427 F10800.000 ; move to first infill point
G1 F1200
G1 X140.849 Y99.405 E0.00388 ; infill
G1 F1200
G1 X141.455 Y99.375 E0.00786 ; infill
G1 F1200
G1 X142.068 Y99.434 E0.01193 ; infill
G1 F8640
G1 X141.455 Y99.375 E-0.14220 ; wipe and retract
G1 E-0.65780 F2100.00000 ; retract
G1 Z0.800 F10800.000 ; lift Z
G1 X143.800 Y108.069 F10800.000 ; move to first infill point
G1 Z0.200 F10800.000 ; restore layer Z
G1 E0.80000 F2100.00000 ; unretract
G1 F1200
G1 X135.101 Y99.370 E0.38675 ; infill
G1 X134.566 Y99.370 E0.01681 ; infill
G1 X143.630 Y108.434 E0.40298 ; infill
G1 X143.630 Y108.969 E0.01681 ; infill
G1 X134.031 Y99.370 E0.42675 ; infill
G1 X133.497 Y99.370 E0.01681 ; infill
G1 X143.630 Y109.503 E0.45052 ; infill
G1 X143.630 Y110.038 E0.01681 ; infill
G1 X132.962 Y99.370 E0.47429 ; infill
G1 X132.427 Y99.370 E0.01681 ; infill
G1 X143.630 Y110.573 E0.49806 ; infill
G1 X143.630 Y110.630 E0.00181 ; infill
G1 X143.153 Y110.630 E0.01500 ; infill
G1 X131.893 Y99.370 E0.50062 ; infill
G1 X131.358 Y99.370 E0.01681 ; infill
G1 X142.618 Y110.630 E0.50062 ; infill
G1 X142.084 Y110.630 E0.01681 ; infill
G1 X130.823 Y99.370 E0.50062 ; infill
G1 X130.289 Y99.370 E0.01681 ; infill
G1 X141.549 Y110.630 E0.50062 ; infill
G1 X141.014 Y110.630 E0.01681 ; infill
G1 X129.754 Y99.370 E0.50062 ; infill
G1 X129.219 Y99.370 E0.01681 ; infill
G1 X140.480 Y110.630 E0.50062 ; infill
G1 X139.945 Y110.630 E0.01681 ; infill
G1 X128.685 Y99.370 E0.50062 ; infill
G1 X128.150 Y99.370 E0.01681 ; infill
G1 X139.410 Y110.630 E0.50062 ; infill
G1 X138.876 Y110.630 E0.01681 ; infill
G1 X127.615 Y99.370 E0.50062 ; infill
G1 X127.081 Y99.370 E0.01681 ; infill
G1 X138.341 Y110.630 E0.50062 ; infill
G1 X137.806 Y110.630 E0.01681 ; infill
G1 X126.546 Y99.370 E0.50062 ; infill
G1 X126.011 Y99.370 E0.01681 ; infill
G1 X137.271 Y110.630 E0.50062 ; infill
G1 X136.737 Y110.630 E0.01681 ; infill
G1 X125.477 Y99.370 E0.50062 ; infill
G1 X124.942 Y99.370 E0.01681 ; infill
G1 X136.202 Y110.630 E0.50062 ; infill
G1 X135.667 Y110.630 E0.01681 ; infill
G1 X124.407 Y99.370 E0.50062 ; infill
G1 X123.872 Y99.370 E0.01681 ; infill
G1 X135.133 Y110.630 E0.50062 ; infill
