; generated by Slic3r 1.37.2.1-prusa3d-win64 on 2020-01-09 at 11:46:48

; 

; external perimeters extrusion width = 0.45mm
; perimeters extrusion width = 0.45mm
; infill extrusion width = 0.45mm
; solid infill extrusion width = 0.45mm
; top infill extrusion width = 0.40mm
; support material extrusion width = 0.35mm
; first layer extrusion width = 0.42mm

M107 ; disable fan
M115 U3.4.0 ; tell printer latest fw version
M83  ; extruder relative mode
M104 S255 ; set extruder temp
M140 S100 ; set bed temp
M190 S100 ; wait for bed temp
M109 S255 ; wait for extruder temp
G28 W ; home all without mesh bed level
G80 ; mesh bed leveling
G1 Y-3.0 F1000.0 ; go outside print area
G92 E0.0
G1 X60.0 E9.0  F1000.0 ; intro line
G1 X100.0 E12.5  F1000.0 ; intro line
G92 E0.0
M221 S95
M900 K30 
Filament gcode
G21 ; set units to millimeters
G90 ; use absolute coordinates
M83 ; use relative distances for extrusion
;BEFORE_LAYER_CHANGE
G92 E0.0
;0.2


G1 E-0.80000 F2100.00000 ; retract
G1 Z0.600 F10800.000 ; lift Z
;AFTER_LAYER_CHANGE
;0.2
G1 X94.891 Y81.811 F10800.000 ; move to first skirt point
G1 Z0.200 F10800.000 ; restore layer Z
G1 E0.80000 F2100.00000 ; unretract
M204 S1000 ; adjust acceleration
G1 F1200
G1 X95.447 Y81.037 E0.02989 ; skirt
G1 X96.181 Y80.575 E0.02720 ; skirt
G1 X97.032 Y80.407 E0.02720 ; skirt
G1 X152.944 Y80.407 E1.75307 ; skirt
G1 X153.821 Y80.576 E0.02802 ; skirt
G1 X154.574 Y81.057 E0.02802 ; skirt
G1 X155.096 Y81.783 E0.02802 ; skirt
G1 X155.313 Y82.649 E0.02802 ; skirt
G1 X155.317 Y122.771 E1.25798 ; skirt
G1 X155.257 Y123.269 E0.01574 ; skirt
G1 X155.093 Y123.744 E0.01574 ; skirt
G1 X152.723 Y128.724 E0.17292 ; skirt
G1 X152.218 Y129.391 E0.02626 ; skirt
G1 X151.606 Y129.801 E0.02308 ; skirt
G1 X150.895 Y130.004 E0.02319 ; skirt
G1 X109.223 Y134.655 E1.31469 ; skirt
G1 X101.512 Y134.486 E0.24183 ; skirt
G1 X100.978 Y134.409 E0.01692 ; skirt
G1 X100.496 Y134.223 E0.01621 ; skirt
G1 X100.065 Y133.938 E0.01621 ; skirt
G1 X97.576 Y131.575 E0.10760 ; skirt
G1 X97.275 Y131.169 E0.01585 ; skirt
G1 X97.066 Y130.708 E0.01585 ; skirt
G1 X94.785 Y123.425 E0.23930 ; skirt
G1 X94.685 Y122.837 E0.01870 ; skirt
G1 X94.683 Y82.742 E1.25716 ; skirt
G1 X94.878 Y81.870 E0.02801 ; skirt
G1 F8640
G1 X95.447 Y81.037 E-0.23294 ; wipe and retract
G1 F8640
G1 X96.181 Y80.575 E-0.20028 ; wipe and retract
G1 F8640
G1 X97.032 Y80.407 E-0.20028 ; wipe and retract
G1 F8640
G1 X97.580 Y80.407 E-0.12650 ; wipe and retract
G1 E-0.04000 F2100.00000 ; retract
G1 Z0.800 F10800.000 ; lift Z
G1 X99.322 Y129.962 F10800.000 ; move to first support material point
G1 Z0.200 F10800.000 ; restore layer Z
G1 E0.80000 F2100.00000 ; unretract
G1 F1200
G1 X99.322 Y123.093 E0.21538 ; support material
G1 X100.077 Y123.093 E0.02365 ; support material
G1 X100.077 Y129.792 E0.21006 ; support material
G1 X100.831 Y129.792 E0.02365 ; support material
G1 X100.831 Y123.093 E0.21006 ; support material
G1 X101.585 Y123.093 E0.02365 ; support material
G1 X101.585 Y132.110 E0.28273 ; support material
G1 X102.339 Y132.110 E0.02365 ; support material
G1 X102.339 Y123.093 E0.28273 ; support material
G1 X103.093 Y123.093 E0.02365 ; support material
G1 X103.093 Y132.110 E0.28273 ; support material
G1 X103.847 Y132.110 E0.02365 ; support material
G1 X103.847 Y123.093 E0.28273 ; support material
G1 X104.602 Y123.093 E0.02365 ; support material
G1 X104.602 Y132.110 E0.28273 ; support material
G1 X105.356 Y132.110 E0.02365 ; support material
G1 X105.356 Y123.093 E0.28273 ; support material
G1 X106.110 Y123.093 E0.02365 ; support material
G1 X106.110 Y132.110 E0.28273 ; support material
G1 X106.864 Y132.110 E0.02365 ; support material
G1 X106.864 Y123.093 E0.28273 ; support material
G1 X107.618 Y123.093 E0.02365 ; support material
G1 X107.618 Y132.110 E0.28273 ; support material
G1 X108.372 Y132.110 E0.02365 ; support material
G1 X108.372 Y123.093 E0.28273 ; support material
G1 X109.127 Y123.093 E0.02365 ; support material
G1 X109.127 Y132.280 E0.28805 ; support material
G1 F8640
G1 X109.127 Y128.989 E-0.76000 ; wipe and retract
G1 E-0.04000 F2100.00000 ; retract
G1 Z0.800 F10800.000 ; lift Z
G1 X140.801 Y127.644 F10800.000 ; move to first support material point
G1 Z0.200 F10800.000 ; restore layer Z
G1 E0.80000 F2100.00000 ; unretract
G1 F1200
G1 X140.801 Y123.093 E0.14270 ; support material
G1 X141.555 Y123.093 E0.02365 ; support material
G1 X141.555 Y127.475 E0.13738 ; support material
G1 X142.310 Y127.475 E0.02365 ; support material
G1 X142.310 Y123.093 E0.13738 ; support material
G1 X143.064 Y123.093 E0.02365 ; support material
G1 X143.064 Y127.475 E0.13738 ; support material
G1 X143.818 Y127.475 E0.02365 ; support material
G1 X143.818 Y123.093 E0.13738 ; support material
G1 X144.572 Y123.093 E0.02365 ; support material
G1 X144.572 Y127.475 E0.13738 ; support material
G1 X145.326 Y127.475 E0.02365 ; support material
G1 X145.326 Y123.093 E0.13738 ; support material
G1 X146.080 Y123.093 E0.02365 ; support material
G1 X146.080 Y127.475 E0.13738 ; support material
G1 X146.834 Y127.475 E0.02365 ; support material
G1 X146.834 Y123.093 E0.13738 ; support material
G1 X147.589 Y123.093 E0.02365 ; support material
G1 X147.589 Y127.475 E0.13738 ; support material
G1 X148.343 Y127.475 E0.02365 ; support material
G1 X148.343 Y123.093 E0.13738 ; support material
G1 X149.097 Y123.093 E0.02365 ; support material
G1 X149.097 Y127.475 E0.13738 ; support material
G1 X149.851 Y127.475 E0.02365 ; support material
G1 X149.851 Y123.093 E0.13738 ; support material
G1 X150.605 Y123.093 E0.02365 ; support material
G1 X150.605 Y127.644 E0.14270 ; support material
G1 F8640
G1 X150.605 Y124.353 E-0.76000 ; wipe and retract
G1 E-0.04000 F2100.00000 ; retract
G1 Z0.800 F10800.000 ; lift Z
G1 X138.473 Y99.535 F10800.000 ; move to first perimeter point
G1 Z0.200 F10800.000 ; restore layer Z
G1 E0.80000 F2100.00000 ; unretract
G1 F1200
G1 X138.074 Y99.676 E0.01326 ; perimeter
G1 X137.670 Y99.745 E0.01287 ; perimeter
G1 X137.453 Y99.754 E0.00679 ; perimeter
G1 X137.223 Y99.745 E0.00723 ; perimeter
G1 X136.818 Y99.676 E0.01290 ; perimeter
G1 X136.419 Y99.535 E0.01326 ; perimeter
G1 X136.049 Y99.328 E0.01326 ; perimeter
G1 X135.720 Y99.063 E0.01326 ; perimeter
G1 X135.441 Y98.745 E0.01326 ; perimeter
G1 X135.219 Y98.385 E0.01326 ; perimeter
G1 X135.061 Y97.992 E0.01326 ; perimeter
G1 X134.972 Y97.579 E0.01326 ; perimeter
G1 X134.954 Y97.156 E0.01326 ; perimeter
G1 X135.008 Y96.736 E0.01326 ; perimeter
G1 X135.132 Y96.332 E0.01326 ; perimeter
G1 X135.322 Y95.954 E0.01326 ; perimeter
G1 X135.574 Y95.614 E0.01326 ; perimeter
G1 X135.879 Y95.321 E0.01326 ; perimeter
G1 X136.230 Y95.084 E0.01326 ; perimeter
G1 X136.615 Y94.910 E0.01326 ; perimeter
G1 X137.024 Y94.803 E0.01326 ; perimeter
G1 X137.431 Y94.769 E0.01280 ; perimeter
G1 X137.866 Y94.803 E0.01366 ; perimeter
G1 X138.277 Y94.910 E0.01332 ; perimeter
G1 X138.662 Y95.084 E0.01326 ; perimeter
G1 X139.013 Y95.321 E0.01326 ; perimeter
G1 X139.318 Y95.614 E0.01326 ; perimeter
G1 X139.570 Y95.954 E0.01326 ; perimeter
G1 X139.760 Y96.332 E0.01326 ; perimeter
G1 X139.884 Y96.736 E0.01326 ; perimeter
G1 X139.938 Y97.156 E0.01326 ; perimeter
G1 X139.920 Y97.579 E0.01326 ; perimeter
G1 X139.831 Y97.992 E0.01326 ; perimeter
G1 X139.679 Y98.371 E0.01280 ; perimeter
G1 X139.453 Y98.743 E0.01366 ; perimeter
G1 X139.172 Y99.063 E0.01332 ; perimeter
G1 X138.843 Y99.328 E0.01326 ; perimeter
G1 X138.526 Y99.505 E0.01138 ; perimeter
G1 F8640
G1 X138.074 Y99.676 E-0.11136 ; wipe and retract
G1 F8640
G1 X137.670 Y99.745 E-0.09479 ; wipe and retract
G1 F8640
G1 X137.453 Y99.754 E-0.05002 ; wipe and retract
G1 F8640
G1 X137.223 Y99.745 E-0.05323 ; wipe and retract
G1 F8640
G1 X136.818 Y99.676 E-0.09501 ; wipe and retract
G1 F8640
G1 X136.419 Y99.535 E-0.09768 ; wipe and retract
G1 F8640
G1 X136.049 Y99.328 E-0.09768 ; wipe and retract
G1 F8640
G1 X135.720 Y99.063 E-0.09768 ; wipe and retract
G1 F8640
G1 X135.541 Y98.859 E-0.06254 ; wipe and retract
G1 E-0.04000 F2100.00000 ; retract
G1 Z0.800 F10800.000 ; lift Z
G1 X137.453 Y99.377 F10800.000 ; move to first perimeter point
G1 Z0.200 F10800.000 ; restore layer Z
G1 E0.80000 F2100.00000 ; unretract
G1 F1200
G1 X137.262 Y99.369 E0.00597 ; perimeter
G1 X136.913 Y99.309 E0.01112 ; perimeter
G1 X136.575 Y99.190 E0.01125 ; perimeter
G1 X136.261 Y99.015 E0.01125 ; perimeter
G1 X135.982 Y98.789 E0.01125 ; perimeter
G1 X135.745 Y98.520 E0.01125 ; perimeter
G1 X135.557 Y98.214 E0.01125 ; perimeter
G1 X135.423 Y97.881 E0.01125 ; perimeter
G1 X135.347 Y97.531 E0.01125 ; perimeter
G1 X135.332 Y97.172 E0.01125 ; perimeter
G1 X135.378 Y96.816 E0.01125 ; perimeter
G1 X135.483 Y96.473 E0.01125 ; perimeter
G1 X135.644 Y96.152 E0.01125 ; perimeter
G1 X135.858 Y95.864 E0.01125 ; perimeter
G1 X136.117 Y95.616 E0.01125 ; perimeter
G1 X136.414 Y95.415 E0.01125 ; perimeter
G1 X136.741 Y95.267 E0.01125 ; perimeter
G1 X137.088 Y95.176 E0.01125 ; perimeter
G1 X137.432 Y95.147 E0.01083 ; perimeter
G1 X137.803 Y95.176 E0.01165 ; perimeter
G1 X138.151 Y95.267 E0.01127 ; perimeter
G1 X138.478 Y95.415 E0.01125 ; perimeter
G1 X138.775 Y95.616 E0.01125 ; perimeter
G1 X139.034 Y95.864 E0.01125 ; perimeter
G1 X139.248 Y96.152 E0.01125 ; perimeter
G1 X139.409 Y96.473 E0.01125 ; perimeter
G1 X139.514 Y96.816 E0.01125 ; perimeter
G1 X139.560 Y97.172 E0.01125 ; perimeter
G1 X139.545 Y97.531 E0.01125 ; perimeter
G1 X139.469 Y97.881 E0.01125 ; perimeter
G1 X139.340 Y98.202 E0.01082 ; perimeter
G1 X139.148 Y98.519 E0.01165 ; perimeter
G1 X138.910 Y98.789 E0.01127 ; perimeter
G1 X138.631 Y99.015 E0.01125 ; perimeter
G1 X138.317 Y99.190 E0.01125 ; perimeter
G1 X137.979 Y99.309 E0.01125 ; perimeter
G1 X137.513 Y99.374 E0.01476 ; perimeter
G1 X137.365 Y99.546 F10800.000 ; move inwards before travel
G1 F8640
G1 X137.262 Y99.369 E-0.05780 ; wipe and retract
G1 F8640
G1 X136.913 Y99.309 E-0.08191 ; wipe and retract
G1 F8640
G1 X136.575 Y99.190 E-0.08286 ; wipe and retract
G1 F8640
G1 X136.261 Y99.015 E-0.08286 ; wipe and retract
G1 F8640
G1 X135.982 Y98.789 E-0.08286 ; wipe and retract
G1 F8640
G1 X135.745 Y98.520 E-0.08286 ; wipe and retract
G1 F8640
G1 X135.557 Y98.214 E-0.08286 ; wipe and retract
G1 F8640
G1 X135.423 Y97.881 E-0.08286 ; wipe and retract
G1 F8640
G1 X135.347 Y97.531 E-0.08286 ; wipe and retract
G1 F8640
G1 X135.340 Y97.356 E-0.04027 ; wipe and retract
G1 E-0.04000 F2100.00000 ; retract
G1 Z0.800 F10800.000 ; lift Z
G1 X115.028 Y97.579 F10800.000 ; move to first perimeter point
G1 Z0.200 F10800.000 ; restore layer Z
G1 E0.80000 F2100.00000 ; unretract
G1 F1200
G1 X114.939 Y97.992 E0.01326 ; perimeter
G1 X114.781 Y98.385 E0.01326 ; perimeter
G1 X114.559 Y98.745 E0.01326 ; perimeter
G1 X114.280 Y99.063 E0.01326 ; perimeter
G1 X113.951 Y99.328 E0.01326 ; perimeter
G1 X113.581 Y99.535 E0.01326 ; perimeter
G1 X113.182 Y99.676 E0.01326 ; perimeter
G1 X112.778 Y99.745 E0.01287 ; perimeter
G1 X112.331 Y99.745 E0.01401 ; perimeter
G1 X111.926 Y99.676 E0.01290 ; perimeter
G1 X111.527 Y99.535 E0.01326 ; perimeter
G1 X111.157 Y99.328 E0.01326 ; perimeter
G1 X110.828 Y99.063 E0.01326 ; perimeter
G1 X110.549 Y98.745 E0.01326 ; perimeter
G1 X110.327 Y98.385 E0.01326 ; perimeter
G1 X110.169 Y97.992 E0.01326 ; perimeter
G1 X110.080 Y97.579 E0.01326 ; perimeter
G1 X110.062 Y97.156 E0.01326 ; perimeter
G1 X110.116 Y96.736 E0.01326 ; perimeter
G1 X110.240 Y96.332 E0.01326 ; perimeter
G1 X110.430 Y95.954 E0.01326 ; perimeter
G1 X110.682 Y95.614 E0.01326 ; perimeter
G1 X110.987 Y95.321 E0.01326 ; perimeter
G1 X111.338 Y95.084 E0.01326 ; perimeter
G1 X111.723 Y94.910 E0.01326 ; perimeter
G1 X112.132 Y94.803 E0.01326 ; perimeter
G1 X112.539 Y94.769 E0.01280 ; perimeter
G1 X112.974 Y94.803 E0.01366 ; perimeter
G1 X113.385 Y94.910 E0.01332 ; perimeter
G1 X113.770 Y95.084 E0.01326 ; perimeter
G1 X114.121 Y95.321 E0.01326 ; perimeter
G1 X114.426 Y95.614 E0.01326 ; perimeter
G1 X114.678 Y95.954 E0.01326 ; perimeter
G1 X114.868 Y96.332 E0.01326 ; perimeter
G1 X114.992 Y96.736 E0.01326 ; perimeter
G1 X115.046 Y97.156 E0.01326 ; perimeter
G1 X115.031 Y97.519 E0.01138 ; perimeter
G1 X114.654 Y97.503 F10800.000 ; move to first perimeter point
G1 F1200
G1 X114.577 Y97.881 E0.01212 ; perimeter
G1 X114.443 Y98.214 E0.01125 ; perimeter
G1 X114.255 Y98.520 E0.01125 ; perimeter
G1 X114.018 Y98.789 E0.01125 ; perimeter
G1 X113.739 Y99.015 E0.01125 ; perimeter
G1 X113.425 Y99.190 E0.01125 ; perimeter
G1 X113.087 Y99.309 E0.01125 ; perimeter
G1 X112.738 Y99.369 E0.01111 ; perimeter
G1 X112.370 Y99.369 E0.01152 ; perimeter
G1 X112.021 Y99.309 E0.01112 ; perimeter
G1 X111.683 Y99.190 E0.01125 ; perimeter
G1 X111.369 Y99.015 E0.01125 ; perimeter
G1 X111.090 Y98.789 E0.01125 ; perimeter
G1 X110.853 Y98.520 E0.01125 ; perimeter
G1 X110.665 Y98.214 E0.01125 ; perimeter
G1 X110.531 Y97.881 E0.01125 ; perimeter
G1 X110.455 Y97.531 E0.01125 ; perimeter
G1 X110.440 Y97.172 E0.01125 ; perimeter
G1 X110.486 Y96.816 E0.01125 ; perimeter
G1 X110.591 Y96.473 E0.01125 ; perimeter
G1 X110.752 Y96.152 E0.01125 ; perimeter
G1 X110.966 Y95.864 E0.01125 ; perimeter
G1 X111.225 Y95.616 E0.01125 ; perimeter
G1 X111.522 Y95.415 E0.01125 ; perimeter
G1 X111.849 Y95.267 E0.01125 ; perimeter
G1 X112.196 Y95.176 E0.01125 ; perimeter
G1 X112.540 Y95.147 E0.01082 ; perimeter
G1 X112.911 Y95.176 E0.01165 ; perimeter
G1 X113.259 Y95.267 E0.01127 ; perimeter
G1 X113.586 Y95.415 E0.01125 ; perimeter
G1 X113.883 Y95.616 E0.01125 ; perimeter
G1 X114.142 Y95.864 E0.01125 ; perimeter
G1 X114.356 Y96.152 E0.01125 ; perimeter
G1 X114.517 Y96.473 E0.01125 ; perimeter
G1 X114.622 Y96.816 E0.01125 ; perimeter
G1 X114.668 Y97.172 E0.01125 ; perimeter
G1 X114.656 Y97.443 E0.00850 ; perimeter
G1 X114.963 Y97.734 F10800.000 ; move inwards before travel
G1 F8640
G1 X114.577 Y97.881 E-0.10292 ; wipe and retract
G1 F8640
G1 X114.443 Y98.214 E-0.08286 ; wipe and retract
G1 F8640
G1 X114.255 Y98.520 E-0.08286 ; wipe and retract
G1 F8640
G1 X114.018 Y98.789 E-0.08286 ; wipe and retract
G1 F8640
G1 X113.739 Y99.015 E-0.08286 ; wipe and retract
G1 F8640
G1 X113.425 Y99.190 E-0.08286 ; wipe and retract
G1 F8640
G1 X113.087 Y99.309 E-0.08286 ; wipe and retract
G1 F8640
G1 X112.738 Y99.369 E-0.08183 ; wipe and retract
G1 F8640
G1 X112.400 Y99.369 E-0.07808 ; wipe and retract
G1 E-0.04000 F2100.00000 ; retract
G1 Z0.800 F10800.000 ; lift Z
G1 X97.647 Y83.371 F10800.000 ; move to first perimeter point
G1 Z0.200 F10800.000 ; restore layer Z
G1 E0.80000 F2100.00000 ; unretract
G1 F1200
G1 X152.353 Y83.371 E1.71526 ; perimeter
G1 X152.353 Y122.092 E1.21408 ; perimeter
G1 X97.647 Y122.092 E1.71526 ; perimeter
G1 X97.647 Y83.431 E1.21220 ; perimeter
G1 X97.270 Y82.994 F10800.000 ; move to first perimeter point
G1 F1200
G1 X152.730 Y82.994 E1.73891 ; perimeter
G1 X152.730 Y122.469 E1.23773 ; perimeter
G1 X97.270 Y122.469 E1.73891 ; perimeter
G1 X97.270 Y83.054 E1.23585 ; perimeter
G1 X97.662 Y83.076 F10800.000 ; move inwards before travel
G1 F8640
G1 X100.561 Y83.050 E-0.76000 ; wipe and retract
G1 E-0.04000 F2100.00000 ; retract
G1 Z0.800 F10800.000 ; lift Z
G1 X102.276 Y83.484 F10800.000 ; move to first infill point
G1 Z0.200 F10800.000 ; restore layer Z
G1 E0.80000 F2100.00000 ; unretract
G1 F1200
G1 X113.419 Y94.627 E0.49548 ; infill
G1 X113.021 Y94.523 E0.01295 ; infill
G1 X112.760 Y94.503 E0.00822 ; infill
G1 X101.911 Y83.654 E0.48241 ; infill
G1 X101.377 Y83.654 E0.01681 ; infill
G1 X112.234 Y94.511 E0.48279 ; infill
G1 X112.085 Y94.524 E0.00471 ; infill
G1 X111.789 Y94.601 E0.00961 ; infill
G1 X100.842 Y83.654 E0.48678 ; infill
G1 X100.307 Y83.654 E0.01681 ; infill
G1 X111.399 Y94.746 E0.49324 ; infill
